app/assets/images/icons/active/children-activities.svg

<?xml version="1.0" encoding="UTF-8" standalone="no"?>
<svg width="32px" height="232px" viewBox="0 0 32 232" version="1.1" xmlns="http://www.w3.org/2000/svg" xmlns:xlink="http://www.w3.org/1999/xlink" xmlns:sketch="http://www.bohemiancoding.com/sketch/ns">
    <title>children-activities</title>
    <description>Created with Sketch (http://www.bohemiancoding.com/sketch)</description>
    <defs></defs>
    <g id="Hotel-facilities" stroke="none" stroke-width="1" fill="none" fill-rule="evenodd" sketch:type="MSPage">
        <path d="M28.9007206,130.328635 C30.1970308,130.328635 31.2502155,129.265901 31.2502155,127.959422 C31.2502155,126.656192 30.1970308,125.597792 28.9007206,125.597792 C27.606562,125.597792 26.554453,126.656192 26.554453,127.959422 C26.554453,129.265901 27.606562,130.328635 28.9007206,130.328635 M23.0872267,133.163673 C23.0872267,133.163673 22.6665982,133.983744 22.542884,134.252406 C22.1835748,135.043227 21.5026085,136.616202 21.3304843,137.591187 C21.1809515,138.434007 21.067995,142.457443 21.067995,142.457443 L18.0612008,144.61216 C17.0951539,145.274066 16.542205,145.969555 17.0252285,146.731126 C17.49857,147.485114 18.2666741,147.219702 19.0638241,146.835124 L21.9824046,144.865656 C22.7214628,144.404163 23.0850751,144.206999 23.4669756,143.326263 C23.8564066,142.432527 23.9844239,139.71232 23.9844239,139.71232 L27.2117521,143.014268 L27.2160552,147.203452 C27.2160552,148.262935 27.558152,149.020173 28.4768648,148.99959 C29.3460919,148.981174 29.6085812,148.317101 29.6150359,147.254368 C29.6150359,147.254368 29.9141016,143.0771 29.6473092,142.561442 C28.9792522,141.284212 26.0918693,137.885849 26.0918693,137.885849 L27.4172254,134.84498 C27.793747,135.486303 29.9560569,138.694003 29.9560569,138.694003 C30.3659276,139.296327 31.0458181,139.663571 31.598767,139.273577 C32.237778,138.818584 32.0860935,137.876099 31.3384292,136.854532 C31.3384292,136.854532 28.8501591,132.880928 28.5166685,132.347936 C28.1401469,131.741279 27.7098365,131.572282 27.0751286,131.194204 L25.9261997,130.635213 C24.7600585,130.18672 23.0872267,133.163673 23.0872267,133.163673 Z M15.1598328,128.09592 C16.5594174,128.09592 17.6911339,126.955188 17.6911339,125.549043 C17.6911339,124.142899 16.5594174,123 15.1598328,123 C13.7645512,123 12.6296074,124.142899 12.6296074,125.549043 C12.6296074,126.955188 13.7645512,128.09592 15.1598328,128.09592 Z M15.5654003,130.494382 C15.1619843,129.841142 14.6972491,129.660228 14.0119797,129.253985 L12.3950883,128.496747 C11.7281071,128.216168 10.9427906,128.320166 10.2553696,128.68416 C9.90251509,128.870491 3.99435288,132.995759 3.99435288,132.995759 C3.15632331,133.765997 3.00463889,134.275156 3.41020647,134.84498 C3.75230326,135.330306 4.78612407,135.291306 5.1669488,134.945728 L10.3855385,131.376201 L9.73039091,132.468184 C9.73039091,132.468184 8.2200013,135.05731 7.79076665,136.005212 C7.41101769,136.845865 6.25455841,140.031898 6.25455841,140.031898 L2.10098698,139.868318 C0.890738898,139.791402 0.125862108,140.115314 0.0172087247,140.933217 C-0.115111733,141.932035 0.527126585,142.26028 1.54803808,142.372945 L6.05553984,142.631857 C6.95704019,142.676273 7.6713555,142.631857 8.35877642,141.860536 L9.6905872,138.688586 L12.0325517,142.592858 L12.0325517,147.044205 C12.0325517,148.183853 12.25201,149.000674 13.2427998,148.979007 C14.1808765,148.956258 14.4638056,148.243436 14.4681088,147.09837 L14.4681088,142.484526 C14.4681088,142.388111 14.4638056,142.305779 14.4530479,142.264613 C14.4455175,142.036033 14.4057137,141.84212 14.3486976,141.668789 L12.2767529,137.347441 L14.3906529,133.081341 C14.7940689,133.772497 17.1155937,137.335524 17.1155937,137.335524 C17.5588134,137.986597 18.2946443,138.377674 18.8873969,137.957348 C19.573742,137.469855 19.4123756,136.451538 18.603392,135.354139 C18.603392,135.354139 15.9268611,131.071789 15.5654003,130.494382 Z M15.5654003,130.494382" id="children-activities--white" fill="#206FAC" sketch:type="MSShapeGroup"></path>
        <path d="M28.9007206,90.3286345 C30.1970308,90.3286345 31.2502155,89.2659013 31.2502155,87.9594219 C31.2502155,86.6561924 30.1970308,85.5977924 28.9007206,85.5977924 C27.606562,85.5977924 26.554453,86.6561924 26.554453,87.9594219 C26.554453,89.2659013 27.606562,90.3286345 28.9007206,90.3286345 M23.0872267,93.1636732 C23.0872267,93.1636732 22.6665982,93.9837436 22.542884,94.2524061 C22.1835748,95.0432269 21.5026085,96.6162021 21.3304843,97.5911868 C21.1809515,98.4340068 21.067995,102.457443 21.067995,102.457443 L18.0612008,104.61216 C17.0951539,105.274066 16.542205,105.969555 17.0252285,106.731126 C17.49857,107.485114 18.2666741,107.219702 19.0638241,106.835124 L21.9824046,104.865656 C22.7214628,104.404163 23.0850751,104.206999 23.4669756,103.326263 C23.8564066,102.432527 23.9844239,99.71232 23.9844239,99.71232 L27.2117521,103.014268 L27.2160552,107.203452 C27.2160552,108.262935 27.558152,109.020173 28.4768648,108.99959 C29.3460919,108.981174 29.6085812,108.317101 29.6150359,107.254368 C29.6150359,107.254368 29.9141016,103.0771 29.6473092,102.561442 C28.9792522,101.284212 26.0918693,97.8858488 26.0918693,97.8858488 L27.4172254,94.8449801 C27.793747,95.4863033 29.9560569,98.6940027 29.9560569,98.6940027 C30.3659276,99.2963266 31.0458181,99.6635708 31.598767,99.2735769 C32.237778,98.8185841 32.0860935,97.876099 31.3384292,96.8545317 C31.3384292,96.8545317 28.8501591,92.8809277 28.5166685,92.3479361 C28.1401469,91.741279 27.7098365,91.5722816 27.0751286,91.1942042 L25.9261997,90.635213 C24.7600585,90.1867201 23.0872267,93.1636732 23.0872267,93.1636732 Z M15.1598328,88.0959197 C16.5594174,88.0959197 17.6911339,86.9551877 17.6911339,85.5490432 C17.6911339,84.1428987 16.5594174,83 15.1598328,83 C13.7645512,83 12.6296074,84.1428987 12.6296074,85.5490432 C12.6296074,86.9551877 13.7645512,88.0959197 15.1598328,88.0959197 Z M15.5654003,90.4943819 C15.1619843,89.8411422 14.6972491,89.6602284 14.0119797,89.2539848 L12.3950883,88.4967467 C11.7281071,88.2161678 10.9427906,88.3201662 10.2553696,88.6841604 C9.90251509,88.8704908 3.99435288,92.9957592 3.99435288,92.9957592 C3.15632331,93.7659971 3.00463889,94.2751557 3.41020647,94.8449801 C3.75230326,95.3303057 4.78612407,95.2913064 5.1669488,94.9457285 L10.3855385,91.3762014 L9.73039091,92.4681842 C9.73039091,92.4681842 8.2200013,95.05731 7.79076665,96.0052118 C7.41101769,96.8458652 6.25455841,100.031898 6.25455841,100.031898 L2.10098698,99.8683176 C0.890738898,99.7914021 0.125862108,100.115314 0.0172087247,100.933217 C-0.115111733,101.932035 0.527126585,102.26028 1.54803808,102.372945 L6.05553984,102.631857 C6.95704019,102.676273 7.6713555,102.631857 8.35877642,101.860536 L9.6905872,98.6885862 L12.0325517,102.592858 L12.0325517,107.044205 C12.0325517,108.183853 12.25201,109.000674 13.2427998,108.979007 C14.1808765,108.956258 14.4638056,108.243436 14.4681088,107.09837 L14.4681088,102.484526 C14.4681088,102.388111 14.4638056,102.305779 14.4530479,102.264613 C14.4455175,102.036033 14.4057137,101.84212 14.3486976,101.668789 L12.2767529,97.3474406 L14.3906529,93.0813412 C14.7940689,93.7724969 17.1155937,97.3355241 17.1155937,97.3355241 C17.5588134,97.9865972 18.2946443,98.3776744 18.8873969,97.9573477 C19.573742,97.4698554 19.4123756,96.4515381 18.603392,95.3541387 C18.603392,95.3541387 15.9268611,91.0717895 15.5654003,90.4943819 Z M15.5654003,90.4943819" id="children-activities--white" fill="#FFFFFF" sketch:type="MSShapeGroup"></path>
        <path d="M28.9007206,50.3286345 C30.1970308,50.3286345 31.2502155,49.2659013 31.2502155,47.9594219 C31.2502155,46.6561924 30.1970308,45.5977924 28.9007206,45.5977924 C27.606562,45.5977924 26.554453,46.6561924 26.554453,47.9594219 C26.554453,49.2659013 27.606562,50.3286345 28.9007206,50.3286345 M23.0872267,53.1636732 C23.0872267,53.1636732 22.6665982,53.9837436 22.542884,54.2524061 C22.1835748,55.0432269 21.5026085,56.6162021 21.3304843,57.5911868 C21.1809515,58.4340068 21.067995,62.4574435 21.067995,62.4574435 L18.0612008,64.6121595 C17.0951539,65.2740657 16.542205,65.9695548 17.0252285,66.7311261 C17.49857,67.4851142 18.2666741,67.2197018 19.0638241,66.8351245 L21.9824046,64.8656555 C22.7214628,64.4041628 23.0850751,64.2069992 23.4669756,63.3262631 C23.8564066,62.4325272 23.9844239,59.71232 23.9844239,59.71232 L27.2117521,63.014268 L27.2160552,67.203452 C27.2160552,68.2629353 27.558152,69.0201734 28.4768648,68.9995904 C29.3460919,68.981174 29.6085812,68.3171011 29.6150359,67.2543679 C29.6150359,67.2543679 29.9141016,63.0771004 29.6473092,62.5614418 C28.9792522,61.2842119 26.0918693,57.8858488 26.0918693,57.8858488 L27.4172254,54.8449801 C27.793747,55.4863033 29.9560569,58.6940027 29.9560569,58.6940027 C30.3659276,59.2963266 31.0458181,59.6635708 31.598767,59.2735769 C32.237778,58.8185841 32.0860935,57.876099 31.3384292,56.8545317 C31.3384292,56.8545317 28.8501591,52.8809277 28.5166685,52.3479361 C28.1401469,51.741279 27.7098365,51.5722816 27.0751286,51.1942042 L25.9261997,50.635213 C24.7600585,50.1867201 23.0872267,53.1636732 23.0872267,53.1636732 Z M15.1598328,48.0959197 C16.5594174,48.0959197 17.6911339,46.9551877 17.6911339,45.5490432 C17.6911339,44.1428987 16.5594174,43 15.1598328,43 C13.7645512,43 12.6296074,44.1428987 12.6296074,45.5490432 C12.6296074,46.9551877 13.7645512,48.0959197 15.1598328,48.0959197 Z M15.5654003,50.4943819 C15.1619843,49.8411422 14.6972491,49.6602284 14.0119797,49.2539848 L12.3950883,48.4967467 C11.7281071,48.2161678 10.9427906,48.3201662 10.2553696,48.6841604 C9.90251509,48.8704908 3.99435288,52.9957592 3.99435288,52.9957592 C3.15632331,53.7659971 3.00463889,54.2751557 3.41020647,54.8449801 C3.75230326,55.3303057 4.78612407,55.2913064 5.1669488,54.9457285 L10.3855385,51.3762014 L9.73039091,52.4681842 C9.73039091,52.4681842 8.2200013,55.05731 7.79076665,56.0052118 C7.41101769,56.8458652 6.25455841,60.0318983 6.25455841,60.0318983 L2.10098698,59.8683176 C0.890738898,59.7914021 0.125862108,60.1153137 0.0172087247,60.9332175 C-0.115111733,61.9320351 0.527126585,62.2602799 1.54803808,62.3729448 L6.05553984,62.6318574 C6.95704019,62.6762733 7.6713555,62.6318574 8.35877642,61.8605362 L9.6905872,58.6885862 L12.0325517,62.592858 L12.0325517,67.0442045 C12.0325517,68.1838532 12.25201,69.0006737 13.2427998,68.9790074 C14.1808765,68.9562577 14.4638056,68.2434356 14.4681088,67.0983703 L14.4681088,62.4845264 C14.4681088,62.3881112 14.4638056,62.3057792 14.4530479,62.2646132 C14.4455175,62.0360334 14.4057137,61.8421198 14.3486976,61.6687892 L12.2767529,57.3474406 L14.3906529,53.0813412 C14.7940689,53.7724969 17.1155937,57.3355241 17.1155937,57.3355241 C17.5588134,57.9865972 18.2946443,58.3776744 18.8873969,57.9573477 C19.573742,57.4698554 19.4123756,56.4515381 18.603392,55.3541387 C18.603392,55.3541387 15.9268611,51.0717895 15.5654003,50.4943819 Z M15.5654003,50.4943819" id="children-activities--light-grey" fill="#67737B" sketch:type="MSShapeGroup"></path>
        <path d="M28.9007206,10.3286345 C30.1970308,10.3286345 31.2502155,9.26590128 31.2502155,7.95942187 C31.2502155,6.6561924 30.1970308,5.59779241 28.9007206,5.59779241 C27.606562,5.59779241 26.554453,6.6561924 26.554453,7.95942187 C26.554453,9.26590128 27.606562,10.3286345 28.9007206,10.3286345 M23.0872267,13.1636732 C23.0872267,13.1636732 22.6665982,13.9837436 22.542884,14.2524061 C22.1835748,15.0432269 21.5026085,16.6162021 21.3304843,17.5911868 C21.1809515,18.4340068 21.067995,22.4574435 21.067995,22.4574435 L18.0612008,24.6121595 C17.0951539,25.2740657 16.542205,25.9695548 17.0252285,26.7311261 C17.49857,27.4851142 18.2666741,27.2197018 19.0638241,26.8351245 L21.9824046,24.8656555 C22.7214628,24.4041628 23.0850751,24.2069992 23.4669756,23.3262631 C23.8564066,22.4325272 23.9844239,19.71232 23.9844239,19.71232 L27.2117521,23.014268 L27.2160552,27.203452 C27.2160552,28.2629353 27.558152,29.0201734 28.4768648,28.9995904 C29.3460919,28.981174 29.6085812,28.3171011 29.6150359,27.2543679 C29.6150359,27.2543679 29.9141016,23.0771004 29.6473092,22.5614418 C28.9792522,21.2842119 26.0918693,17.8858488 26.0918693,17.8858488 L27.4172254,14.8449801 C27.793747,15.4863033 29.9560569,18.6940027 29.9560569,18.6940027 C30.3659276,19.2963266 31.0458181,19.6635708 31.598767,19.2735769 C32.237778,18.8185841 32.0860935,17.876099 31.3384292,16.8545317 C31.3384292,16.8545317 28.8501591,12.8809277 28.5166685,12.3479361 C28.1401469,11.741279 27.7098365,11.5722816 27.0751286,11.1942042 L25.9261997,10.635213 C24.7600585,10.1867201 23.0872267,13.1636732 23.0872267,13.1636732 Z M15.1598328,8.09591972 C16.5594174,8.09591972 17.6911339,6.95518769 17.6911339,5.54904317 C17.6911339,4.14289866 16.5594174,3 15.1598328,3 C13.7645512,3 12.6296074,4.14289866 12.6296074,5.54904317 C12.6296074,6.95518769 13.7645512,8.09591972 15.1598328,8.09591972 Z M15.5654003,10.4943819 C15.1619843,9.84114222 14.6972491,9.6602284 14.0119797,9.2539848 L12.3950883,8.49674673 C11.7281071,8.21616782 10.9427906,8.32016618 10.2553696,8.68416045 C9.90251509,8.87049085 3.99435288,12.9957592 3.99435288,12.9957592 C3.15632331,13.7659971 3.00463889,14.2751557 3.41020647,14.8449801 C3.75230326,15.3303057 4.78612407,15.2913064 5.1669488,14.9457285 L10.3855385,11.3762014 L9.73039091,12.4681842 C9.73039091,12.4681842 8.2200013,15.05731 7.79076665,16.0052118 C7.41101769,16.8458652 6.25455841,20.0318983 6.25455841,20.0318983 L2.10098698,19.8683176 C0.890738898,19.7914021 0.125862108,20.1153137 0.0172087247,20.9332175 C-0.115111733,21.9320351 0.527126585,22.2602799 1.54803808,22.3729448 L6.05553984,22.6318574 C6.95704019,22.6762733 7.6713555,22.6318574 8.35877642,21.8605362 L9.6905872,18.6885862 L12.0325517,22.592858 L12.0325517,27.0442045 C12.0325517,28.1838532 12.25201,29.0006737 13.2427998,28.9790074 C14.1808765,28.9562577 14.4638056,28.2434356 14.4681088,27.0983703 L14.4681088,22.4845264 C14.4681088,22.3881112 14.4638056,22.3057792 14.4530479,22.2646132 C14.4455175,22.0360334 14.4057137,21.8421198 14.3486976,21.6687892 L12.2767529,17.3474406 L14.3906529,13.0813412 C14.7940689,13.7724969 17.1155937,17.3355241 17.1155937,17.3355241 C17.5588134,17.9865972 18.2946443,18.3776744 18.8873969,17.9573477 C19.573742,17.4698554 19.4123756,16.4515381 18.603392,15.3541387 C18.603392,15.3541387 15.9268611,11.0717895 15.5654003,10.4943819 Z M15.5654003,10.4943819" id="children-activities--dark-grey" fill="#3A434E" sketch:type="MSShapeGroup"></path>
    </g>
</svg>

<svg width="32" height="232" viewBox="0 0 32 232" xmlns="http://www.w3.org/2000/svg" xmlns:sketch="http://www.bohemiancoding.com/sketch/ns"><title>children-activities</title><g sketch:type="MSPage" fill="none"><path d="M28.901 130.329c1.296 0 2.349-1.063 2.349-2.369 0-1.303-1.053-2.362-2.349-2.362-1.294 0-2.346 1.058-2.346 2.362 0 1.306 1.052 2.369 2.346 2.369m-5.813 2.835s-.421.82-.544 1.089c-.359.791-1.04 2.364-1.212 3.339-.15.843-.262 4.866-.262 4.866l-3.007 2.155c-.966.662-1.519 1.357-1.036 2.119.473.754 1.241.489 2.039.104l2.919-1.969c.739-.461 1.103-.659 1.485-1.539.389-.894.517-3.614.517-3.614l3.227 3.302.004 4.189c0 1.059.342 1.817 1.261 1.796.869-.018 1.132-.682 1.138-1.745 0 0 .299-4.177.032-4.693-.668-1.277-3.555-4.676-3.555-4.676l1.325-3.041c.377.641 2.539 3.849 2.539 3.849.41.602 1.09.97 1.643.58.639-.455.487-1.397-.26-2.419l-2.822-4.507c-.377-.607-.807-.776-1.442-1.154l-1.149-.559c-1.166-.448-2.839 2.528-2.839 2.528zm-7.927-5.068c1.4 0 2.531-1.141 2.531-2.547 0-1.406-1.132-2.549-2.531-2.549-1.395 0-2.53 1.143-2.53 2.549s1.135 2.547 2.53 2.547zm.406 2.398c-.403-.653-.868-.834-1.553-1.24l-1.617-.757c-.667-.281-1.452-.177-2.14.187-.353.186-6.261 4.312-6.261 4.312-.838.77-.99 1.279-.584 1.849.342.485 1.376.446 1.757.101l5.219-3.57-.655 1.092s-1.51 2.589-1.94 3.537c-.38.841-1.536 4.027-1.536 4.027l-4.154-.164c-1.21-.077-1.975.247-2.084 1.065-.132.999.51 1.327 1.531 1.44l4.508.259c.902.044 1.616 0 2.303-.771l1.332-3.172 2.342 3.904v4.451c0 1.14.219 1.956 1.21 1.935.938-.023 1.221-.736 1.225-1.881v-4.614l-.015-.22c-.008-.229-.047-.422-.104-.596l-2.072-4.321 2.114-4.266c.403.691 2.725 4.254 2.725 4.254.443.651 1.179 1.042 1.772.622.686-.487.525-1.506-.284-2.603l-3.038-4.86zm0 0" id="children-activities--white" fill="#206FAC" sketch:type="MSShapeGroup"/><path d="M28.901 90.329c1.296 0 2.349-1.063 2.349-2.369 0-1.303-1.053-2.362-2.349-2.362-1.294 0-2.346 1.058-2.346 2.362 0 1.306 1.052 2.369 2.346 2.369m-5.813 2.835s-.421.82-.544 1.089c-.359.791-1.04 2.364-1.212 3.339-.15.843-.262 4.866-.262 4.866l-3.007 2.155c-.966.662-1.519 1.357-1.036 2.119.473.754 1.241.489 2.039.104l2.919-1.969c.739-.461 1.103-.659 1.485-1.539.389-.894.517-3.614.517-3.614l3.227 3.302.004 4.189c0 1.059.342 1.817 1.261 1.796.869-.018 1.132-.682 1.138-1.745 0 0 .299-4.177.032-4.693-.668-1.277-3.555-4.676-3.555-4.676l1.325-3.041c.377.641 2.539 3.849 2.539 3.849.41.602 1.09.97 1.643.58.639-.455.487-1.397-.26-2.419l-2.822-4.507c-.377-.607-.807-.776-1.442-1.154l-1.149-.559c-1.166-.448-2.839 2.528-2.839 2.528zm-7.927-5.068c1.4 0 2.531-1.141 2.531-2.547 0-1.406-1.132-2.549-2.531-2.549-1.395 0-2.53 1.143-2.53 2.549s1.135 2.547 2.53 2.547zm.406 2.398c-.403-.653-.868-.834-1.553-1.24l-1.617-.757c-.667-.281-1.452-.177-2.14.187-.353.186-6.261 4.312-6.261 4.312-.838.77-.99 1.279-.584 1.849.342.485 1.376.446 1.757.101l5.219-3.57-.655 1.092s-1.51 2.589-1.94 3.537c-.38.841-1.536 4.027-1.536 4.027l-4.154-.164c-1.21-.077-1.975.247-2.084 1.065-.132.999.51 1.327 1.531 1.44l4.508.259c.902.044 1.616 0 2.303-.771l1.332-3.172 2.342 3.904v4.451c0 1.14.219 1.956 1.21 1.935.938-.023 1.221-.736 1.225-1.881v-4.614l-.015-.22c-.008-.229-.047-.422-.104-.596l-2.072-4.321 2.114-4.266c.403.691 2.725 4.254 2.725 4.254.443.651 1.179 1.042 1.772.622.686-.487.525-1.506-.284-2.603l-3.038-4.86zm0 0" fill="#fff" sketch:type="MSShapeGroup"/><path d="M28.901 50.329c1.296 0 2.349-1.063 2.349-2.369 0-1.303-1.053-2.362-2.349-2.362-1.294 0-2.346 1.058-2.346 2.362 0 1.306 1.052 2.369 2.346 2.369m-5.813 2.835s-.421.82-.544 1.089c-.359.791-1.04 2.364-1.212 3.339-.15.843-.262 4.866-.262 4.866l-3.007 2.155c-.966.662-1.519 1.357-1.036 2.119.473.754 1.241.489 2.039.104l2.919-1.969c.739-.461 1.103-.659 1.485-1.539.389-.894.517-3.614.517-3.614l3.227 3.302.004 4.189c0 1.059.342 1.817 1.261 1.796.869-.018 1.132-.682 1.138-1.745 0 0 .299-4.177.032-4.693-.668-1.277-3.555-4.676-3.555-4.676l1.325-3.041c.377.641 2.539 3.849 2.539 3.849.41.602 1.09.97 1.643.58.639-.455.487-1.397-.26-2.419l-2.822-4.507c-.377-.607-.807-.776-1.442-1.154l-1.149-.559c-1.166-.448-2.839 2.528-2.839 2.528zm-7.927-5.068c1.4 0 2.531-1.141 2.531-2.547 0-1.406-1.132-2.549-2.531-2.549-1.395 0-2.53 1.143-2.53 2.549s1.135 2.547 2.53 2.547zm.406 2.398c-.403-.653-.868-.834-1.553-1.24l-1.617-.757c-.667-.281-1.452-.177-2.14.187-.353.186-6.261 4.312-6.261 4.312-.838.77-.99 1.279-.584 1.849.342.485 1.376.446 1.757.101l5.219-3.57-.655 1.092s-1.51 2.589-1.94 3.537c-.38.841-1.536 4.027-1.536 4.027l-4.154-.164c-1.21-.077-1.975.247-2.084 1.065-.132.999.51 1.327 1.531 1.44l4.508.259c.902.044 1.616 0 2.303-.771l1.332-3.172 2.342 3.904v4.451c0 1.14.219 1.956 1.21 1.935.938-.023 1.221-.736 1.225-1.881v-4.614l-.015-.22c-.008-.229-.047-.422-.104-.596l-2.072-4.321 2.114-4.266c.403.691 2.725 4.254 2.725 4.254.443.651 1.179 1.042 1.772.622.686-.487.525-1.506-.284-2.603l-3.038-4.86zm0 0" fill="#67737B" sketch:type="MSShapeGroup"/><path d="M28.901 10.329c1.296 0 2.349-1.063 2.349-2.369 0-1.303-1.053-2.362-2.349-2.362-1.294 0-2.346 1.058-2.346 2.362 0 1.306 1.052 2.369 2.346 2.369m-5.813 2.835s-.421.82-.544 1.089c-.359.791-1.04 2.364-1.212 3.339-.15.843-.262 4.866-.262 4.866l-3.007 2.155c-.966.662-1.519 1.357-1.036 2.119.473.754 1.241.489 2.039.104l2.919-1.969c.739-.461 1.103-.659 1.485-1.539.389-.894.517-3.614.517-3.614l3.227 3.302.004 4.189c0 1.059.342 1.817 1.261 1.796.869-.018 1.132-.682 1.138-1.745 0 0 .299-4.177.032-4.693-.668-1.277-3.555-4.676-3.555-4.676l1.325-3.041c.377.641 2.539 3.849 2.539 3.849.41.602 1.09.97 1.643.58.639-.455.487-1.397-.26-2.419l-2.822-4.507c-.377-.607-.807-.776-1.442-1.154l-1.149-.559c-1.166-.448-2.839 2.528-2.839 2.528zm-7.927-5.068c1.4 0 2.531-1.141 2.531-2.547 0-1.406-1.132-2.549-2.531-2.549-1.395 0-2.53 1.143-2.53 2.549s1.135 2.547 2.53 2.547zm.406 2.398c-.403-.653-.868-.834-1.553-1.24l-1.617-.757c-.667-.281-1.452-.177-2.14.187-.353.186-6.261 4.312-6.261 4.312-.838.77-.99 1.279-.584 1.849.342.485 1.376.446 1.757.101l5.219-3.57-.655 1.092s-1.51 2.589-1.94 3.537c-.38.841-1.536 4.027-1.536 4.027l-4.154-.164c-1.21-.077-1.975.247-2.084 1.065-.132.999.51 1.327 1.531 1.44l4.508.259c.902.044 1.616 0 2.303-.771l1.332-3.172 2.342 3.904v4.451c0 1.14.219 1.956 1.21 1.935.938-.023 1.221-.736 1.225-1.881v-4.614l-.015-.22c-.008-.229-.047-.422-.104-.596l-2.072-4.321 2.114-4.266c.403.691 2.725 4.254 2.725 4.254.443.651 1.179 1.042 1.772.622.686-.487.525-1.506-.284-2.603l-3.038-4.86zm0 0" fill="#3A434E" sketch:type="MSShapeGroup"/></g></svg>
